static/logos/sketch-wordmark-color.svg

<svg width="100" height="23" viewBox="0 0 100 23" fill="none" xmlns="http://www.w3.org/2000/svg">
<g clip-path="url(#clip0_1_1070)">
<path fill-rule="evenodd" clip-rule="evenodd" d="M33.9086 15.0428L33.8893 14.7857H33.6316H32.0316H31.7422L31.7541 15.0749C31.8861 18.2964 34.0581 20.4302 37.9205 20.4302C41.6044 20.4302 44.1094 18.5162 44.1094 15.6191C44.1094 14.0525 43.566 12.9439 42.5303 12.1869C41.7337 11.6045 40.7811 11.2762 39.2014 10.9337C39.0959 10.9108 38.9861 10.8874 38.8541 10.8597C38.776 10.8432 38.4951 10.7844 38.5099 10.7875C35.6414 10.1862 34.7316 9.66375 34.7316 8.10796C34.7316 6.49915 36.0472 5.47463 38.2538 5.47463C40.4007 5.47463 41.7575 6.78579 41.8205 8.84979L41.829 9.11907H42.0983H43.6761H43.9602L43.9538 8.83489C43.8795 5.61762 41.7208 3.45241 38.2316 3.45241C34.8118 3.45241 32.5538 5.51016 32.5538 8.17463C32.5538 9.73675 33.0967 10.8246 34.134 11.5514C34.9242 12.1051 35.8395 12.3986 37.4544 12.7247C37.53 12.7399 37.6089 12.7557 37.7028 12.7744C37.761 12.7859 37.8266 12.7989 37.9499 12.8232C39.4779 13.1255 40.152 13.3121 40.7671 13.6698C41.5305 14.1137 41.9094 14.7479 41.9094 15.7302C41.9094 17.4357 40.4755 18.408 37.9649 18.408C35.5615 18.408 34.07 17.2027 33.9086 15.0428ZM48.6094 3.17463V2.89685H48.3316H46.7538H46.4761V3.17463V19.8413V20.1191H46.7538H48.3316H48.6094V19.8413V16.8696L50.8549 14.6826L54.8652 20.0084L54.9485 20.1191H55.0872H57.0427H57.6022L57.2639 19.6733L52.3663 13.2224L56.8832 8.72706L57.3599 8.25241H56.6872H54.576H54.4604L54.379 8.33447L48.6094 14.1451V3.17463ZM68.5427 14.9191H68.8036L68.82 14.6586C68.8229 14.6128 68.8271 14.5371 68.8313 14.4459C68.8345 14.3736 68.8374 14.3033 68.8393 14.2367C68.8417 14.1647 68.8427 14.0991 68.8427 14.0413C68.8427 10.5547 66.5335 7.98574 63.1205 7.98574C59.7139 7.98574 57.2872 10.7203 57.2872 14.1746C57.2872 17.7292 59.6041 20.3857 63.1427 20.3857C65.8184 20.3857 67.8856 18.7981 68.6303 16.39L68.7417 16.0302H68.3649H66.7205H66.5242L66.4586 16.2151C65.9909 17.5331 64.7247 18.408 63.1649 18.408C61.1258 18.408 59.7041 17.0075 59.448 14.9191H68.5427ZM59.5126 13.0746C59.8726 11.2047 61.248 9.96352 63.1205 9.96352C65.0504 9.96352 66.3824 11.164 66.6737 13.0746H59.5126ZM75.8427 10.1413H76.1205V9.86352V8.53018V8.25241H75.8427H73.5205V5.30796V5.03018H73.2427H71.6649H71.3872V5.30796V8.25241H69.5094H69.2316V8.53018V9.86352V10.1413H69.5094H71.3872V16.7969C71.3872 18.9802 72.5197 20.1635 74.5983 20.1635C74.961 20.1635 75.2739 20.1418 75.5364 20.1053C75.6988 20.0828 75.8107 20.0594 75.8726 20.0423L76.0761 19.9858V19.7746V18.3524V18.0077L75.7393 18.081C75.7258 18.0839 75.6985 18.0894 75.6596 18.0967C75.5935 18.1091 75.52 18.1215 75.4411 18.1331C75.2393 18.1628 75.0387 18.1819 74.8544 18.1852C74.8353 18.1856 74.8168 18.1857 74.7983 18.1857C73.8877 18.1857 73.5205 17.758 73.5205 16.6857V10.1413H75.8427ZM82.476 20.3857C85.429 20.3857 87.5139 18.5172 88.0374 15.873L88.103 15.5413H87.7649H86.1649H85.9515L85.8964 15.7477C85.448 17.4351 84.2305 18.408 82.476 18.408C80.2866 18.408 78.776 16.6808 78.776 14.1969C78.776 11.6937 80.284 9.96352 82.476 9.96352C84.2305 9.96352 85.448 10.9364 85.8964 12.6238L85.9515 12.8302H86.1649H87.7649H88.103L88.0374 12.4984C87.5139 9.85431 85.429 7.98574 82.476 7.98574C79.0459 7.98574 76.6205 10.7397 76.6205 14.1969C76.6205 17.635 79.0493 20.3857 82.476 20.3857ZM92.0316 3.17463V2.89685H91.7538H90.1761H89.8983V3.17463V19.8413V20.1191H90.1761H91.7538H92.0316V19.8413V13.1524C92.0316 11.1144 93.2721 9.91907 95.1538 9.91907C96.9512 9.91907 97.8538 10.9595 97.8538 12.9302V19.8413V20.1191H98.1316H99.7094H99.9872V19.8413V12.6191C99.9872 9.83537 98.2634 7.98574 95.4205 7.98574C93.9578 7.98574 92.7821 8.52159 92.0316 9.29069V3.17463Z" fill="black"/>
<path fill-rule="evenodd" clip-rule="evenodd" d="M5.52995 0.749066L12.6728 0L19.8157 0.749066L25.3456 8.11278L12.6728 22.7513L0 8.11278L5.52995 0.749066Z" fill="#FDB300"/>
<path fill-rule="evenodd" clip-rule="evenodd" d="M5.13307 8.11267L12.6728 22.7513L0 8.11267H5.13307Z" fill="#EA6C00"/>
<path fill-rule="evenodd" clip-rule="evenodd" d="M20.2116 8.11267L12.6719 22.7513L25.3446 8.11267H20.2116Z" fill="#EA6C00"/>
<path fill-rule="evenodd" clip-rule="evenodd" d="M5.13281 8.11267H20.2122L12.6725 22.7513L5.13281 8.11267Z" fill="#FDAD00"/>
<path fill-rule="evenodd" clip-rule="evenodd" d="M12.6725 0L5.52964 0.748942L5.13281 8.1127L12.6725 0Z" fill="#FDD231"/>
<path fill-rule="evenodd" clip-rule="evenodd" d="M12.6719 0L19.8147 0.748942L20.2116 8.1127L12.6719 0Z" fill="#FDD231"/>
<path fill-rule="evenodd" clip-rule="evenodd" d="M25.3424 8.11273L19.8125 0.748962L20.2093 8.11273H25.3424Z" fill="#FDAD00"/>
<path fill-rule="evenodd" clip-rule="evenodd" d="M0 8.11273L5.52989 0.748962L5.13307 8.11273H0Z" fill="#FDAD00"/>
<path fill-rule="evenodd" clip-rule="evenodd" d="M12.6725 0L5.13281 8.1127H20.2122L12.6725 0Z" fill="#FEEEB7"/>
</g>
<defs>
<clipPath id="clip0_1_1070">
<rect width="100" height="22.7513" fill="white"/>
</clipPath>
</defs>
</svg>

<svg xmlns="http://www.w3.org/2000/svg" width="278.261" height="64" fill="none" viewBox="0 0 100 23"><g fill-rule="evenodd" clip-path="url(#a)" clip-rule="evenodd"><path fill="#000" d="m33.909 15.043-.02-.257H31.742l.012.289c.132 3.221 2.304 5.355 6.166 5.355 3.684 0 6.19-1.914 6.19-4.81 0-1.567-.544-2.676-1.58-3.433-.796-.582-1.749-.91-3.329-1.253a50.609 50.609 0 0 0-.347-.074l-.344-.072c-2.869-.602-3.778-1.124-3.778-2.68 0-1.609 1.315-2.633 3.522-2.633 2.147 0 3.504 1.31 3.567 3.375l.008.27h2.131l-.006-.285c-.075-3.217-2.233-5.383-5.722-5.383-3.42 0-5.678 2.058-5.678 4.723 0 1.562.543 2.65 1.58 3.376.79.554 1.706.848 3.32 1.174.076.015.155.03.249.05.058.01.124.024.247.048 1.528.303 2.202.49 2.817.847.764.444 1.142 1.078 1.142 2.06 0 1.706-1.434 2.678-3.944 2.678-2.404 0-3.895-1.205-4.056-3.365Zm14.7-11.868v-.278h-2.133V20.119h2.133V16.87l2.246-2.187 4.01 5.325.084.111h2.654l-.34-.446-4.897-6.45 4.517-4.496.477-.475H54.46l-.081.082-5.77 5.811V3.175Zm19.934 11.744h.26l.017-.26a13.272 13.272 0 0 0 .023-.618c0-3.486-2.31-6.055-5.723-6.055-3.406 0-5.833 2.734-5.833 6.189 0 3.554 2.317 6.21 5.856 6.21 2.675 0 4.743-1.587 5.487-3.995l.112-.36h-2.218l-.065.185c-.468 1.318-1.734 2.193-3.294 2.193-2.04 0-3.46-1.4-3.717-3.489h9.095Zm-9.03-1.844c.36-1.87 1.735-3.111 3.608-3.111 1.93 0 3.261 1.2 3.553 3.11h-7.161Zm16.33-2.934h.278V8.252H73.52V5.03h-2.133v3.222h-2.155V10.141h2.155v6.656c0 2.183 1.133 3.366 3.211 3.366.363 0 .676-.021.938-.058.163-.022.275-.046.337-.063l.203-.056V18.008l-.337.073-.08.016c-.066.012-.139.024-.218.036a4.674 4.674 0 0 1-.643.053c-.91 0-1.278-.428-1.278-1.5V10.14h2.323Zm6.633 10.245c2.953 0 5.038-1.869 5.561-4.513l.066-.332h-2.152l-.055.207c-.448 1.687-1.665 2.66-3.42 2.66-2.19 0-3.7-1.727-3.7-4.211 0-2.503 1.508-4.233 3.7-4.233 1.755 0 2.972.972 3.42 2.66l.055.206h2.152l-.066-.332c-.523-2.644-2.608-4.512-5.561-4.512-3.43 0-5.855 2.754-5.855 6.21 0 3.439 2.428 6.19 5.855 6.19Zm9.556-17.211v-.278H89.898V20.119H92.032V13.152c0-2.038 1.24-3.233 3.122-3.233 1.797 0 2.7 1.04 2.7 3.011v7.189h2.133v-7.5c0-2.784-1.724-4.633-4.566-4.633-1.463 0-2.639.536-3.39 1.305V3.175Z"/><path fill="#FDB300" d="M5.53.75 12.673 0l7.143.75 5.53 7.363L12.673 22.75 0 8.113 5.53.749Z"/><path fill="#EA6C00" d="m5.133 8.113 7.54 14.638L0 8.113h5.133Z"/><path fill="#EA6C00" d="m20.212 8.113-7.54 14.638L25.345 8.113h-5.133Z"/><path fill="#FDAD00" d="M5.133 8.113h15.08l-7.54 14.638-7.54-14.638Z"/><path fill="#FDD231" d="M12.672 0 5.53.749l-.397 7.364L12.673 0Z"/><path fill="#FDD231" d="m12.672 0 7.143.749.397 7.364L12.672 0Z"/><path fill="#FDAD00" d="M25.342 8.113 19.812.749l.397 7.364h5.133ZM0 8.113 5.53.749l-.397 7.364H0Z"/><path fill="#FEEEB7" d="m12.672 0-7.54 8.113h15.08L12.672 0Z"/></g><defs><clipPath id="a"><path fill="#fff" d="M0 0h100v22.751H0z"/></clipPath></defs></svg>
